; generated by PrusaSlicer 2.2.0+linux-x64 on 2020-04-25 at 00:17:20 UTC

; 

; external perimeters extrusion width = 0.60mm
; perimeters extrusion width = 0.50mm
; infill extrusion width = 0.50mm
; solid infill extrusion width = 0.50mm
; top infill extrusion width = 0.45mm
; first layer extrusion width = 0.42mm

; external perimeters extrusion width = 0.60mm
; perimeters extrusion width = 0.50mm
; infill extrusion width = 0.50mm
; solid infill extrusion width = 0.50mm
; top infill extrusion width = 0.45mm
; first layer extrusion width = 0.42mm

; external perimeters extrusion width = 0.60mm
; perimeters extrusion width = 0.50mm
; infill extrusion width = 0.50mm
; solid infill extrusion width = 0.50mm
; top infill extrusion width = 0.45mm
; first layer extrusion width = 0.42mm

M73 P0 R105
M73 Q0 S105
M201 X1000 Y1000 Z1000 E5000 ; sets maximum accelerations, mm/sec^2
M203 X200 Y200 Z12 E120 ; sets maximum feedrates, mm/sec
M204 P1250 R1250 T1250 ; sets acceleration (P, T) and retract acceleration (R), mm/sec^2
M205 X8.00 Y8.00 Z0.40 E4.50 ; sets the jerk limits, mm/sec
M205 S0 T0 ; sets the minimum extruding and travel feed rate, mm/sec
M107
M862.3 P "MK3" ; printer model check
M862.1 P0.4 ; nozzle diameter check
M115 U3.8.1 ; tell printer latest fw version
G90 ; use absolute coordinates
M83 ; extruder relative mode
M104 S250 ; set extruder temp
M140 S85 ; set bed temp
M190 S85 ; wait for bed temp
M109 S250 ; wait for extruder temp
G28 W ; home all without mesh bed level
G80 ; mesh bed leveling
G1 Y-3.0 F1000.0 ; go outside print area
G92 E0.0
G1 X60.0 E9.0 F1000.0 ; intro line
M73 Q0 S105
M73 P0 R104
G1 X100.0 E12.5 F1000.0 ; intro line
G92 E0.0
M221 S95
G21 ; set units to millimeters
G90 ; use absolute coordinates
M83 ; use relative distances for extrusion
M900 K45 ; Filament gcode
;BEFORE_LAYER_CHANGE
G92 E0.0
;0.2


G1 E-1.40000 F2100.00000
G1 Z0.200 F10800.000
;AFTER_LAYER_CHANGE
;0.2
G1 Z0.400
G1 X43.795 Y55.981
G1 Z0.200
G1 E1.40000 F2100.00000
M204 S1000
G1 F1200.000
G1 X44.201 Y55.168 E0.02849
G1 X51.627 Y45.780 E0.37533
G1 X69.215 Y25.274 E0.84705
G1 X70.023 Y24.432 E0.03658
G1 X71.439 Y23.299 E0.05685
G1 X72.453 Y22.688 E0.03714
G1 X73.377 Y22.253 E0.03202
G1 X108.541 Y11.195 E1.15575
G1 X141.077 Y11.164 E1.02017
G1 X141.779 Y11.271 E0.02225
G1 X175.534 Y21.860 E1.10922
G1 X176.618 Y22.251 E0.03614
G1 X178.258 Y23.105 E0.05795
G1 X179.416 Y23.935 E0.04470
G1 X180.777 Y25.264 E0.05963
G1 X198.372 Y45.779 E0.84739
G1 X205.809 Y55.181 E0.37589
G1 X206.093 Y55.667 E0.01763
G1 X206.256 Y56.205 E0.01763
G1 X206.291 Y82.025 E0.80957
G1 X206.179 Y89.021 E0.21939
G1 X206.093 Y89.596 E0.01823
G1 X168.935 Y191.374 E3.39720
G1 X168.402 Y192.525 E0.03976
G1 X167.770 Y193.587 E0.03876
G1 X167.044 Y194.568 E0.03827
G1 X166.057 Y195.629 E0.04544
G1 X164.358 Y196.995 E0.06835
G1 X163.335 Y197.605 E0.03734
G1 X162.229 Y198.124 E0.03832
G1 X161.104 Y198.522 E0.03741
G1 X159.932 Y198.811 E0.03783
G1 X158.737 Y198.983 E0.03786
G1 X157.622 Y199.035 E0.03500
G1 X92.449 Y199.036 E2.04347
G1 X90.366 Y198.857 E0.06555
G1 X88.942 Y198.535 E0.04577
G1 X87.750 Y198.115 E0.03963
G1 X86.585 Y197.561 E0.04046
G1 X85.538 Y196.923 E0.03843
G1 X83.967 Y195.652 E0.06337
G1 X82.960 Y194.572 E0.04630
G1 X82.237 Y193.597 E0.03803
G1 X81.602 Y192.532 E0.03888
G1 X81.089 Y191.434 E0.03800
G1 X44.341 Y89.676 E3.39224
G1 X44.230 Y88.998 E0.02153
G1 X43.709 Y56.648 E1.01447
G1 X43.787 Y56.041 E0.01919
G1 F8640.000
G1 X44.201 Y55.168 E-0.22292
G1 X47.175 Y51.408 E-1.10708
G1 E-0.07000 F2100.00000
G1 Z0.400 F10800.000
G1 X48.617 Y83.912
G1 Z0.200
G1 E1.40000 F2100.00000
G1 F1200.000
G1 X52.250 Y83.857 E0.11390
G1 X52.426 Y85.951 E0.06587
G1 X48.651 Y86.012 E0.11836
G1 X48.618 Y83.972 E0.06398
G1 F8640.000
G1 X52.250 Y83.857 E-0.83888
G1 X52.426 Y85.951 E-0.48509
G1 X52.400 Y85.951 E-0.00603
G1 E-0.07000 F2100.00000
G1 Z0.400 F10800.000
G1 X48.257 Y61.598
G1 Z0.200
G1 E1.40000 F2100.00000
G1 F1200.000
G1 X48.208 Y58.515 E0.09668
G1 X52.346 Y58.452 E0.12975
G1 X52.230 Y59.713 E0.03969
G1 X52.110 Y61.531 E0.05715
G1 X48.317 Y61.597 E0.11894
G1 F8640.000
G1 X48.208 Y58.515 E-0.71212
G1 X50.883 Y58.474 E-0.61788
G1 E-0.07000 F2100.00000
G1 Z0.400 F10800.000
G1 X113.734 Y19.313
G1 Z0.200
G1 E1.40000 F2100.00000
G1 F1200.000
G1 X119.211 Y19.068 E0.17190
G1 X123.070 Y18.981 E0.12102
G1 X126.930 Y18.981 E0.12102
G1 X130.789 Y19.068 E0.12102
G1 X136.264 Y19.312 E0.17184
G1 X136.259 Y15.632 E0.11540
G1 X139.142 Y15.632 E0.09039
G1 X139.137 Y19.529 E0.12218
G1 X144.328 Y20.055 E0.16361
G1 X148.116 Y20.524 E0.11967
G1 X151.893 Y21.077 E0.11967
G1 X155.189 Y21.633 E0.10482
G1 X159.406 Y22.431 E0.13456
G1 X163.136 Y23.232 E0.11962
G1 X166.849 Y24.116 E0.11967
G1 X170.542 Y25.081 E0.11967
G1 X173.315 Y25.872 E0.09042
G1 X172.328 Y26.932 E0.04540
G1 X174.032 Y30.688 E0.12931
G1 X174.106 Y30.894 E0.00687
G1 X174.142 Y31.092 E0.00629
G1 X174.146 Y31.387 E0.00926
G1 X173.475 Y40.034 E0.27194
G1 X173.410 Y40.325 E0.00934
G1 X173.286 Y40.527 E0.00743
G1 X173.106 Y40.680 E0.00743
G1 X172.886 Y40.770 E0.00743
G1 X172.712 Y40.788 E0.00550
G1 X170.222 Y39.291 E0.09108
G1 X167.642 Y37.841 E0.09281
G1 X165.013 Y36.475 E0.09289
G1 X162.341 Y35.197 E0.09288
G1 X159.627 Y34.009 E0.09289
G1 X156.876 Y32.910 E0.09289
G1 X154.090 Y31.903 E0.09288
G1 X151.272 Y30.988 E0.09288
G1 X148.426 Y30.167 E0.09289
G1 X145.554 Y29.441 E0.09289
G1 X142.659 Y28.809 E0.09289
G1 X139.746 Y28.274 E0.09289
G1 X136.816 Y27.835 E0.09288
G1 X133.873 Y27.494 E0.09289
G1 X130.921 Y27.249 E0.09289
G1 X127.962 Y27.102 E0.09289
G1 X125.000 Y27.053 E0.09289
G1 X122.038 Y27.102 E0.09289
G1 X119.079 Y27.249 E0.09289
G1 X116.127 Y27.494 E0.09289
G1 X113.184 Y27.835 E0.09289
G1 X110.254 Y28.274 E0.09288
G1 X107.341 Y28.809 E0.09289
G1 X104.446 Y29.441 E0.09289
G1 X101.574 Y30.167 E0.09289
G1 X98.728 Y30.988 E0.09289
G1 X95.910 Y31.903 E0.09288
G1 X93.124 Y32.910 E0.09288
G1 X90.373 Y34.009 E0.09289
G1 X87.659 Y35.197 E0.09289
G1 X84.987 Y36.475 E0.09288
G1 X82.358 Y37.841 E0.09289
G1 X79.778 Y39.291 E0.09281
G1 X77.288 Y40.788 E0.09108
G1 X77.114 Y40.770 E0.00550
G1 X76.894 Y40.680 E0.00743
G1 X76.798 Y40.611 E0.00372
G1 X76.644 Y40.431 E0.00743
G1 X76.553 Y40.212 E0.00743
G1 X76.525 Y40.034 E0.00564
G1 X75.854 Y31.376 E0.27230
G1 X75.852 Y31.139 E0.00741
G1 X75.877 Y30.960 E0.00567
G1 X75.928 Y30.787 E0.00567
G1 X76.026 Y30.572 E0.00741
G1 X77.993 Y26.962 E0.12889
G1 X77.023 Y25.779 E0.04797
G1 X79.916 Y24.961 E0.09426
G1 X83.151 Y24.116 E0.10482
G1 X86.862 Y23.233 E0.11962
G1 X91.060 Y22.341 E0.13456
G1 X94.344 Y21.712 E0.10482
G1 X98.107 Y21.077 E0.11967
G1 X101.884 Y20.524 E0.11967
G1 X105.672 Y20.055 E0.11967
G1 X110.863 Y19.529 E0.16361
G1 X110.858 Y15.632 E0.12218
G1 X113.743 Y15.632 E0.09045
G1 X113.735 Y19.253 E0.11352
G1 F8640.000
G1 X119.211 Y19.068 E-1.26534
G1 X119.491 Y19.061 E-0.06466
G1 E-0.07000 F2100.00000
G1 Z0.400 F10800.000
G1 X197.654 Y58.452
G1 Z0.200
G1 E1.40000 F2100.00000
G1 F1200.000
G1 X201.792 Y58.515 E0.12975
G1 X201.743 Y61.598 E0.09668
G1 X197.890 Y61.531 E0.12082
G1 X197.770 Y59.713 E0.05715
G1 X197.660 Y58.512 E0.03780
G1 F8640.000
G1 X201.792 Y58.515 E-0.95416
G1 X201.766 Y60.142 E-0.37584
G1 E-0.07000 F2100.00000
G1 Z0.400 F10800.000
G1 X197.751 Y83.851
G1 Z0.200
G1 E1.40000 F2100.00000
G1 F1200.000
G1 X201.792 Y83.911 E0.12672
G1 X201.758 Y86.012 E0.06586
G1 X197.575 Y85.944 E0.13119
G1 X197.746 Y83.910 E0.06399
G1 F8640.000
G1 X201.792 Y83.911 E-0.93430
G1 X201.765 Y85.625 E-0.39570
G1 E-0.07000 F2100.00000
G1 Z0.400 F10800.000
G1 X114.113 Y18.918
G1 Z0.200
G1 E1.40000 F2100.00000
G1 F1200.000
G1 X119.199 Y18.691 E0.15963
G1 X123.066 Y18.604 E0.12128
G1 X126.934 Y18.604 E0.12129
G1 X130.801 Y18.691 E0.12128
G1 X135.886 Y18.918 E0.15959
G1 X135.881 Y15.255 E0.11486
G1 X139.519 Y15.255 E0.11407
G1 X139.514 Y19.188 E0.12332
G1 X144.370 Y19.681 E0.15304
G1 X148.167 Y20.151 E0.11993
G1 X151.951 Y20.704 E0.11993
G1 X155.256 Y21.262 E0.10507
G1 X159.481 Y22.062 E0.13482
G1 X163.219 Y22.865 E0.11990
G1 X166.941 Y23.750 E0.11993
G1 X170.641 Y24.718 E0.11993
G1 X174.293 Y25.759 E0.11905
G1 X175.101 Y26.054 E0.02697
G1 X175.682 Y26.332 E0.02022
G1 X176.314 Y26.718 E0.02319
G1 X176.901 Y27.166 E0.02317
G1 X177.439 Y27.672 E0.02317
G1 X177.921 Y28.232 E0.02317
G1 X178.342 Y28.836 E0.02308
G1 X178.740 Y29.567 E0.02608
G1 X179.020 Y30.249 E0.02311
G1 X179.203 Y30.866 E0.02020
G1 X179.361 Y31.687 E0.02621
G1 X179.419 Y32.418 E0.02299
G1 X179.366 Y34.265 E0.05792
G1 X179.435 Y35.367 E0.03463
G1 X179.607 Y36.460 E0.03467
G1 X179.879 Y37.531 E0.03467
G1 X180.250 Y38.573 E0.03467
G1 X180.717 Y39.575 E0.03467
G1 X181.275 Y40.530 E0.03467
G1 X181.917 Y41.426 E0.03457
G1 X182.547 Y42.160 E0.03034
G1 X183.335 Y42.932 E0.03457
G1 X184.193 Y43.629 E0.03467
G1 X185.113 Y44.242 E0.03467
G1 X186.086 Y44.768 E0.03467
G1 X187.104 Y45.201 E0.03467
G1 X188.157 Y45.536 E0.03467
G1 X189.236 Y45.773 E0.03463
G1 X191.069 Y46.002 E0.05791
G1 X191.884 Y46.203 E0.02632
G1 X192.495 Y46.418 E0.02032
G1 X193.168 Y46.735 E0.02333
G1 X193.804 Y47.120 E0.02329
G1 X194.393 Y47.567 E0.02320
G1 X195.000 Y48.143 E0.02622
G1 X195.478 Y48.708 E0.02320
G1 X195.897 Y49.323 E0.02334
G1 X196.205 Y49.893 E0.02031
G1 X196.531 Y50.667 E0.02635
G1 X196.738 Y51.376 E0.02316
G1 X196.876 Y52.132 E0.02407
G1 X197.263 Y55.401 E0.10322
G1 X197.535 Y58.073 E0.08422
G1 X202.175 Y58.143 E0.14552
G1 X202.113 Y61.981 E0.12035
G1 X197.839 Y61.907 E0.13405
G1 X198.043 Y66.407 E0.14122
G1 X198.121 Y69.669 E0.10231
G1 X198.133 Y72.477 E0.08804
G1 X198.069 Y76.194 E0.11656
G1 X197.963 Y79.000 E0.08804
G1 X197.703 Y83.473 E0.14048
M73 Q1 S104
G1 X202.175 Y83.540 E0.14025
G1 X202.129 Y86.395 E0.08952
G1 X197.456 Y86.319 E0.14655
G1 X196.899 Y91.151 E0.15251
M73 P1 R103
G1 X196.439 Y94.441 E0.10414
G1 X195.750 Y98.654 E0.13387
G1 X195.037 Y102.381 E0.11896
G1 X194.333 Y105.627 E0.10414
G1 X193.334 Y109.778 E0.13387
G1 X192.345 Y113.441 E0.11896
G1 X191.403 Y116.626 E0.10414
G1 X190.097 Y120.691 E0.13387
G1 X188.840 Y124.271 E0.11896
G1 X187.494 Y127.819 E0.11900
G1 X186.240 Y130.895 E0.10414
G1 X184.539 Y134.811 E0.13387
G1 X182.934 Y138.248 E0.11895
G1 X181.243 Y141.646 E0.11899
G1 X179.469 Y145.001 E0.11899
G1 X177.612 Y148.310 E0.11898
G1 X175.673 Y151.573 E0.11900
G1 X173.655 Y154.787 E0.11899
G1 X171.557 Y157.950 E0.11900
G1 X169.381 Y161.059 E0.11899
G1 X167.411 Y163.733 E0.10415
G1 X164.802 Y167.113 E0.13388
G1 X162.402 Y170.052 E0.11896
G1 X159.930 Y172.930 E0.11897
G1 X157.704 Y175.396 E0.10415
G1 X154.774 Y178.502 E0.13388
G1 X152.066 Y181.218 E0.12025
G1 X151.466 Y181.878 E0.02796
G1 X150.925 Y182.639 E0.02928
G1 X150.530 Y183.360 E0.02579
G1 X150.132 Y184.321 E0.03259
G1 X149.889 Y185.229 E0.02946
G1 X149.757 Y186.153 E0.02929
G1 X149.734 Y187.087 E0.02929
G1 X149.823 Y188.017 E0.02928
G1 X150.021 Y188.929 E0.02928
G1 X150.325 Y189.808 E0.02915
G1 X150.677 Y190.550 E0.02576
G1 X151.166 Y191.341 E0.02917
G1 X151.748 Y192.071 E0.02927
G1 X152.413 Y192.727 E0.02929
G1 X153.151 Y193.300 E0.02930
G1 X153.957 Y193.784 E0.02945
G1 X154.910 Y194.198 E0.03258
G1 X155.696 Y194.443 E0.02582
G1 X156.613 Y194.614 E0.02924
G1 X157.544 Y194.676 E0.02927
G1 X158.478 Y194.626 E0.02930
G1 X159.397 Y194.466 E0.02928
G1 X160.292 Y194.199 E0.02926
G1 X161.149 Y193.827 E0.02929
G1 X161.956 Y193.356 E0.02929
G1 X162.701 Y192.793 E0.02928
G1 X163.374 Y192.145 E0.02928
G1 X163.965 Y191.422 E0.02929
G1 X164.465 Y190.638 E0.02917
G1 X164.826 Y189.900 E0.02574
G1 X165.142 Y189.021 E0.02929
G1 X165.367 Y188.004 E0.03266
G1 X165.451 Y187.184 E0.02586
G1 X165.441 Y186.253 E0.02919
G1 X165.320 Y185.327 E0.02929
G1 X165.089 Y184.422 E0.02929
G1 X164.754 Y183.550 E0.02929
G1 X164.317 Y182.724 E0.02929
G1 X163.787 Y181.959 E0.02920
G1 X163.143 Y181.218 E0.03078
G1 X163.135 Y181.128 E0.00283
G1 X163.186 Y181.055 E0.00280
G1 X163.274 Y181.032 E0.00285
G1 X163.372 Y181.084 E0.00348
G1 X163.912 Y181.685 E0.02533
G1 X164.399 Y182.352 E0.02588
G1 X164.866 Y183.170 E0.02953
G1 X165.163 Y183.828 E0.02264
G1 X165.428 Y184.616 E0.02607
G1 X165.610 Y185.425 E0.02603
G1 X165.709 Y186.245 E0.02590
G1 X165.719 Y187.186 E0.02949
G1 X165.654 Y187.904 E0.02261
G1 X165.500 Y188.722 E0.02610
G1 X165.265 Y189.515 E0.02593
G1 X164.903 Y190.379 E0.02939
G1 X164.503 Y191.103 E0.02593
G1 X164.028 Y191.786 E0.02608
G1 X163.561 Y192.337 E0.02263
G1 X162.884 Y192.988 E0.02946
G1 X162.230 Y193.493 E0.02592
G1 X161.524 Y193.931 E0.02604
G1 X160.778 Y194.295 E0.02603
G1 X159.998 Y194.581 E0.02605
G1 X159.298 Y194.760 E0.02264
G1 X158.368 Y194.906 E0.02953
G1 X157.543 Y194.944 E0.02588
G1 X156.714 Y194.895 E0.02604
G1 X155.894 Y194.764 E0.02602
G1 X155.093 Y194.549 E0.02602
G1 X154.321 Y194.255 E0.02591
G1 X153.484 Y193.825 E0.02950
G1 X152.877 Y193.435 E0.02263
G1 X152.225 Y192.919 E0.02608
G1 X151.633 Y192.342 E0.02592
G1 X151.035 Y191.616 E0.02949
G1 X150.634 Y191.017 E0.02259
G1 X150.242 Y190.286 E0.02602
G1 X149.891 Y189.417 E0.02937
G1 X149.666 Y188.621 E0.02595
G1 X149.522 Y187.804 E0.02600
G1 X149.462 Y186.974 E0.02611
G1 X149.482 Y186.253 E0.02260
G1 X149.598 Y185.320 E0.02949
G1 X149.791 Y184.516 E0.02591
G1 X150.065 Y183.733 E0.02602
G1 X150.418 Y182.981 E0.02605
G1 X150.845 Y182.270 E0.02601
G1 X151.343 Y181.605 E0.02604
G1 X151.931 Y180.968 E0.02720
G1 X154.602 Y178.288 E0.11864
G1 X157.231 Y175.516 E0.11979
G1 X159.790 Y172.678 E0.11981
G1 X162.277 Y169.778 E0.11979
G1 X164.691 Y166.816 E0.11980
G1 X167.030 Y163.795 E0.11979
G1 X169.293 Y160.717 E0.11979
G1 X171.478 Y157.583 E0.11979
G1 X173.584 Y154.395 E0.11980
G1 X175.610 Y151.155 E0.11980
G1 X177.554 Y147.866 E0.11979
G1 X179.416 Y144.530 E0.11979
G1 X181.193 Y141.148 E0.11980
G1 X182.885 Y137.723 E0.11979
G1 X184.492 Y134.256 E0.11980
G1 X186.011 Y130.750 E0.11979
G1 X187.442 Y127.208 E0.11979
G1 X188.784 Y123.630 E0.11980
G1 X190.036 Y120.021 E0.11979
G1 X191.198 Y116.381 E0.11980
G1 X192.268 Y112.713 E0.11979
G1 X193.246 Y109.020 E0.11979
G1 X194.132 Y105.303 E0.11979
G1 X194.924 Y101.566 E0.11980
G1 X195.536 Y98.277 E0.10488
G1 X196.228 Y94.038 E0.13466
G1 X196.738 Y90.250 E0.11984
G1 X197.154 Y86.452 E0.11980
G1 X197.474 Y82.645 E0.11979
G1 X197.699 Y78.831 E0.11980
G1 X197.813 Y75.488 E0.10488
G1 X197.863 Y71.193 E0.13466
G1 X197.802 Y67.372 E0.11984
G1 X197.646 Y63.555 E0.11979
G1 X197.394 Y59.742 E0.11979
G1 X197.046 Y55.937 E0.11980
G1 X196.601 Y52.113 E0.12071
G1 X196.442 Y51.296 E0.02609
G1 X196.207 Y50.574 E0.02380
G1 X195.806 Y49.701 E0.03015
G1 X195.338 Y48.968 E0.02725
G1 X194.788 Y48.309 E0.02692
G1 X194.235 Y47.785 E0.02388
G1 X193.461 Y47.218 E0.03007
G1 X192.798 Y46.847 E0.02384
G1 X192.002 Y46.520 E0.02697
G1 X191.163 Y46.292 E0.02726
G1 X189.321 Y46.060 E0.05820
G1 X188.333 Y45.860 E0.03162
G1 X187.369 Y45.580 E0.03148
G1 X186.431 Y45.221 E0.03148
G1 X185.526 Y44.786 E0.03148
G1 X184.660 Y44.278 E0.03148
G1 X183.839 Y43.700 E0.03148
G1 X183.068 Y43.056 E0.03148
G1 X182.354 Y42.350 E0.03148
G1 X181.700 Y41.588 E0.03148
G1 X181.112 Y40.775 E0.03148
G1 X180.592 Y39.915 E0.03148
G1 X180.146 Y39.016 E0.03149
G1 X179.776 Y38.082 E0.03149
G1 X179.484 Y37.122 E0.03148
G1 X179.272 Y36.140 E0.03148
G1 X179.142 Y35.144 E0.03148
G1 X179.095 Y34.137 E0.03161
G1 X179.147 Y32.295 E0.05777
G1 X179.054 Y31.447 E0.02677
G1 X178.883 Y30.716 E0.02353
G1 X178.567 Y29.830 E0.02950
G1 X178.173 Y29.071 E0.02680
G1 X177.692 Y28.372 E0.02661
G1 X177.128 Y27.738 E0.02661
G1 X176.492 Y27.179 E0.02656
G1 X175.889 Y26.766 E0.02290
G1 X175.041 Y26.317 E0.03010
G1 X173.833 Y25.869 E0.04038
G1 X172.776 Y27.005 E0.04867
G1 X174.382 Y30.546 E0.12193
G1 X174.471 Y30.797 E0.00833
G1 X174.518 Y31.055 E0.00824
G1 X174.523 Y31.399 E0.01079
G1 X173.850 Y40.078 E0.27294
G1 X173.815 Y40.300 E0.00704
G1 X173.760 Y40.470 E0.00560
G1 X173.679 Y40.629 E0.00560
G1 X173.573 Y40.773 E0.00560
G1 X173.447 Y40.899 E0.00560
G1 X173.302 Y41.004 E0.00559
G1 X173.143 Y41.084 E0.00560
G1 X172.973 Y41.138 E0.00560
G1 X172.796 Y41.165 E0.00560
G1 X172.602 Y41.162 E0.00610
G1 X170.033 Y39.617 E0.09399
G1 X167.463 Y38.173 E0.09244
