; generated by PrusaSlicer 2.2.0+linux-x64 on 2020-05-01 at 21:55:13 UTC

; 

; external perimeters extrusion width = 0.60mm
; perimeters extrusion width = 0.50mm
; infill extrusion width = 0.50mm
; solid infill extrusion width = 0.50mm
; top infill extrusion width = 0.45mm
; first layer extrusion width = 0.42mm

; external perimeters extrusion width = 0.60mm
; perimeters extrusion width = 0.50mm
; infill extrusion width = 0.50mm
; solid infill extrusion width = 0.50mm
; top infill extrusion width = 0.45mm
; first layer extrusion width = 0.42mm

; external perimeters extrusion width = 0.60mm
; perimeters extrusion width = 0.50mm
; infill extrusion width = 0.50mm
; solid infill extrusion width = 0.50mm
; top infill extrusion width = 0.45mm
; first layer extrusion width = 0.42mm

M73 P0 R110
M73 Q0 S111
M201 X1000 Y1000 Z1000 E5000 ; sets maximum accelerations, mm/sec^2
M203 X200 Y200 Z12 E120 ; sets maximum feedrates, mm/sec
M204 P1250 R1250 T1250 ; sets acceleration (P, T) and retract acceleration (R), mm/sec^2
M205 X8.00 Y8.00 Z0.40 E4.50 ; sets the jerk limits, mm/sec
M205 S0 T0 ; sets the minimum extruding and travel feed rate, mm/sec
M107
M862.3 P "MK3" ; printer model check
M862.1 P0.4 ; nozzle diameter check
M115 U3.8.1 ; tell printer latest fw version
G90 ; use absolute coordinates
M83 ; extruder relative mode
M104 S215 ; set extruder temp
M140 S60 ; set bed temp
M190 S60 ; wait for bed temp
M109 S215 ; wait for extruder temp
G28 W ; home all without mesh bed level
G80 ; mesh bed leveling
G1 Y-3.0 F1000.0 ; go outside print area
G92 E0.0
G1 X60.0 E9.0 F1000.0 ; intro line
M73 Q0 S111
M73 P0 R110
G1 X100.0 E12.5 F1000.0 ; intro line
G92 E0.0
M221 S95
G21 ; set units to millimeters
G90 ; use absolute coordinates
M83 ; use relative distances for extrusion
M900 K30 ; Filament gcode
;BEFORE_LAYER_CHANGE
G92 E0.0
;0.2


G1 E-0.80000 F2100.00000
G1 Z0.600 F10800.000
;AFTER_LAYER_CHANGE
;0.2
G1 X50.611 Y154.816
G1 Z0.200
G1 E0.80000 F2100.00000
M204 S1000
G1 F540.000
G1 X50.416 Y153.879 E0.03001
G1 X50.416 Y128.468 E0.79673
G1 X50.532 Y121.404 E0.22154
G1 X50.673 Y120.714 E0.02206
G1 X87.765 Y19.137 E3.39058
G1 X88.268 Y18.040 E0.03785
G1 X88.938 Y16.903 E0.04138
G1 X89.830 Y15.728 E0.04623
G1 X91.283 Y14.292 E0.06409
G1 X92.321 Y13.513 E0.04067
G1 X93.396 Y12.872 E0.03925
G1 X94.741 Y12.268 E0.04622
G1 X96.690 Y11.698 E0.06367
G1 X97.997 Y11.504 E0.04143
G1 X99.173 Y11.453 E0.03691
G1 X164.244 Y11.453 E2.04025
G1 X166.346 Y11.633 E0.06614
G1 X167.810 Y11.967 E0.04708
G1 X169.783 Y12.756 E0.06663
G1 X171.070 Y13.497 E0.04656
G1 X172.741 Y14.838 E0.06719
G1 X173.753 Y15.924 E0.04654
G1 X174.539 Y16.998 E0.04173
G1 X175.527 Y18.837 E0.06545
G1 X212.352 Y120.767 E3.39811
G1 X212.477 Y121.484 E0.02284
G1 X212.999 Y153.842 E1.01469
G1 X212.943 Y154.387 E0.01716
G1 X212.764 Y154.904 E0.01716
G1 X212.493 Y155.339 E0.01609
G1 X205.057 Y164.737 E0.37574
G1 X187.488 Y185.222 E0.84616
G1 X186.151 Y186.531 E0.05867
G1 X185.223 Y187.223 E0.03631
G1 X183.995 Y187.928 E0.04438
G1 X182.252 Y188.626 E0.05887
G1 X148.350 Y199.257 E1.11401
G1 X147.784 Y199.326 E0.01787
G1 X115.247 Y199.294 E1.02017
G1 X81.181 Y188.632 E1.11922
M73 Q1 S109
M73 P1 R109
G1 X79.258 Y187.851 E0.06507
G1 X78.240 Y187.255 E0.03699
G1 X77.365 Y186.615 E0.03400
G1 X75.913 Y185.205 E0.06344
G1 X58.339 Y164.714 E0.84644
G1 X50.920 Y155.336 E0.37494
G1 X50.642 Y154.868 E0.01706
G1 F8640.000
G1 X50.416 Y153.879 E-0.23414
G1 X50.416 Y151.602 E-0.52586
G1 E-0.04000 F2100.00000
G1 Z0.800 F10800.000
G1 X54.916 Y126.578
G1 Z0.200
G1 E0.80000 F2100.00000
G1 F360.000
G1 X54.949 Y124.478 E0.06586
G1 X59.133 Y124.545 E0.13119
G1 X58.957 Y126.639 E0.06588
G1 X54.976 Y126.579 E0.12484
G1 F8640.000
G1 X54.949 Y124.478 E-0.48521
G1 X56.139 Y124.497 E-0.27479
G1 E-0.04000 F2100.00000
G1 Z0.800 F10800.000
G1 X54.965 Y148.892
G1 Z0.200
G1 E0.80000 F2100.00000
G1 F360.000
G1 X58.818 Y148.958 E0.12082
G1 X58.938 Y150.777 E0.05715
G1 X59.053 Y152.038 E0.03969
G1 X54.916 Y151.975 E0.12975
G1 X54.964 Y148.952 E0.09480
G1 F8640.000
G1 X58.256 Y148.958 E-0.76000
G1 E-0.04000 F2100.00000
G1 Z0.800 F10800.000
G1 X178.714 Y183.527
G1 Z0.200
G1 E0.80000 F2100.00000
G1 F600.000
G1 X179.687 Y184.713 E0.04808
G1 X177.251 Y185.408 E0.07941
G1 X173.096 Y186.484 E0.13456
G1 X169.844 Y187.257 E0.10482
G1 X166.114 Y188.058 E0.11962
G1 X161.897 Y188.857 E0.13456
G1 X158.601 Y189.413 E0.10482
G1 X154.824 Y189.965 E0.11967
G1 X151.036 Y190.434 E0.11967
G1 X145.845 Y190.961 E0.16361
G1 X145.849 Y194.858 E0.12218
G1 X142.966 Y194.858 E0.09039
G1 X142.971 Y191.177 E0.11540
G1 X137.496 Y191.422 E0.17184
G1 X133.638 Y191.508 E0.12102
G1 X129.778 Y191.508 E0.12102
G1 X125.919 Y191.422 E0.12102
G1 X120.444 Y191.177 E0.17184
G1 X120.449 Y194.858 E0.11540
G1 X117.566 Y194.858 E0.09039
G1 X117.571 Y190.961 E0.12218
G1 X112.380 Y190.434 E0.16361
G1 X108.592 Y189.965 E0.11967
G1 X104.815 Y189.413 E0.11967
G1 X101.519 Y188.857 E0.10482
G1 X97.302 Y188.058 E0.13456
G1 X93.572 Y187.257 E0.11962
G1 X90.319 Y186.484 E0.10482
G1 X86.165 Y185.408 E0.13456
G1 X83.393 Y184.617 E0.09037
G1 X84.379 Y183.558 E0.04540
G1 X82.676 Y179.802 E0.12931
G1 X82.602 Y179.595 E0.00687
G1 X82.566 Y179.398 E0.00629
G1 X82.562 Y179.103 E0.00926
G1 X83.233 Y170.455 E0.27194
G1 X83.298 Y170.165 E0.00934
G1 X83.352 Y170.059 E0.00373
G1 X83.506 Y169.879 E0.00743
G1 X83.708 Y169.756 E0.00743
G1 X83.821 Y169.719 E0.00373
G1 X83.996 Y169.702 E0.00550
G1 X86.485 Y171.199 E0.09108
G1 X89.066 Y172.649 E0.09281
G1 X91.695 Y174.014 E0.09289
G1 X94.367 Y175.292 E0.09288
G1 X97.081 Y176.481 E0.09289
G1 X99.832 Y177.580 E0.09289
G1 X102.618 Y178.587 E0.09288
G1 X105.436 Y179.501 E0.09288
G1 X108.282 Y180.322 E0.09289
G1 X111.154 Y181.049 E0.09289
G1 X114.048 Y181.680 E0.09289
G1 X116.962 Y182.216 E0.09289
G1 X119.892 Y182.654 E0.09288
G1 X122.835 Y182.996 E0.09289
G1 X125.787 Y183.241 E0.09289
G1 X128.746 Y183.387 E0.09289
G1 X131.708 Y183.436 E0.09289
G1 X134.670 Y183.387 E0.09289
G1 X137.629 Y183.241 E0.09289
G1 X140.581 Y182.996 E0.09289
G1 X143.524 Y182.654 E0.09289
G1 X146.453 Y182.216 E0.09288
G1 X149.367 Y181.680 E0.09289
G1 X152.262 Y181.049 E0.09289
G1 X155.134 Y180.322 E0.09289
G1 X157.980 Y179.501 E0.09289
G1 X160.798 Y178.587 E0.09288
G1 X163.584 Y177.580 E0.09288
G1 X166.335 Y176.481 E0.09289
G1 X169.048 Y175.292 E0.09289
G1 X171.721 Y174.014 E0.09288
G1 X174.350 Y172.649 E0.09289
G1 X176.930 Y171.199 E0.09281
G1 X179.420 Y169.702 E0.09108
G1 X179.477 Y169.701 E0.00178
G1 X179.707 Y169.756 E0.00743
G1 X179.813 Y169.809 E0.00373
G1 X179.994 Y169.963 E0.00743
G1 X180.118 Y170.165 E0.00743
G1 X180.183 Y170.455 E0.00934
G1 X180.854 Y179.114 E0.27230
G1 X180.855 Y179.350 E0.00741
G1 X180.830 Y179.529 E0.00567
G1 X180.780 Y179.703 E0.00567
G1 X180.682 Y179.918 E0.00741
G1 X178.743 Y183.475 E0.12701
G1 F8640.000
G1 X179.687 Y184.713 E-0.35950
G1 X178.019 Y185.189 E-0.40050
G1 E-0.04000 F2100.00000
G1 Z0.800 F10800.000
G1 X204.362 Y152.038
G1 Z0.200
G1 E0.80000 F2100.00000
G1 F360.000
G1 X204.477 Y150.777 E0.03969
G1 X204.597 Y148.958 E0.05715
G1 X208.450 Y148.892 E0.12082
G1 X208.500 Y151.975 E0.09668
G1 X204.422 Y152.037 E0.12787
G1 F8640.000
G1 X204.477 Y150.777 E-0.29111
G1 X204.597 Y148.958 E-0.42084
G1 X204.806 Y148.955 E-0.04805
G1 E-0.04000 F2100.00000
G1 Z0.800 F10800.000
G1 X204.458 Y126.632
G1 Z0.200
G1 E0.80000 F2100.00000
G1 F360.000
G1 X204.282 Y124.539 E0.06587
G1 X208.057 Y124.478 E0.11836
G1 X208.090 Y126.578 E0.06586
G1 X204.518 Y126.631 E0.11202
G1 X204.524 Y127.008 F10800.000
G1 F600.000
G1 X204.410 Y127.010 E0.00357
G1 X204.670 Y131.484 E0.14052
G1 X204.777 Y134.291 E0.08807
G1 X204.841 Y138.010 E0.11660
G1 X204.829 Y140.819 E0.08807
G1 X204.751 Y144.082 E0.10235
G1 X204.547 Y148.582 E0.14125
G1 X208.821 Y148.508 E0.13405
G1 X208.883 Y152.346 E0.12035
G1 X204.243 Y152.417 E0.14552
G1 X203.971 Y155.089 E0.08422
G1 X203.584 Y158.358 E0.10322
G1 X203.446 Y159.113 E0.02407
G1 X203.239 Y159.822 E0.02316
G1 X202.913 Y160.597 E0.02635
G1 X202.605 Y161.167 E0.02031
G1 X202.186 Y161.782 E0.02334
G1 X201.708 Y162.347 E0.02320
G1 X201.101 Y162.923 E0.02622
G1 X200.512 Y163.370 E0.02320
G1 X199.876 Y163.755 E0.02329
G1 X199.203 Y164.072 E0.02333
G1 X198.592 Y164.287 E0.02032
G1 X197.777 Y164.487 E0.02632
G1 X195.944 Y164.717 E0.05791
G1 X194.865 Y164.953 E0.03463
G1 X193.812 Y165.289 E0.03467
G1 X192.794 Y165.722 E0.03467
G1 X191.821 Y166.247 E0.03467
G1 X190.901 Y166.861 E0.03467
G1 X190.043 Y167.558 E0.03467
G1 X189.255 Y168.329 E0.03457
G1 X188.625 Y169.064 E0.03034
G1 X187.982 Y169.960 E0.03457
G1 X187.425 Y170.914 E0.03467
G1 X186.956 Y171.921 E0.03480
G1 X186.551 Y173.091 E0.03884
G1 X186.314 Y174.031 E0.03040
G1 X186.143 Y175.123 E0.03463
G1 X186.074 Y176.225 E0.03463
G1 X186.126 Y178.072 E0.05792
G1 X186.069 Y178.807 E0.02312
G1 X185.936 Y179.530 E0.02305
G1 X185.695 Y180.329 E0.02619
G1 X185.448 Y180.924 E0.02019
G1 X185.099 Y181.574 E0.02314
G1 X184.627 Y182.260 E0.02608
G1 X184.145 Y182.819 E0.02314
G1 X183.678 Y183.262 E0.02019
G1 X183.018 Y183.774 E0.02619
G1 X182.391 Y184.157 E0.02305
G1 X181.724 Y184.475 E0.02316
G1 X181.005 Y184.729 E0.02391
G1 X177.350 Y185.772 E0.11917
G1 X173.187 Y186.850 E0.13482
G1 X169.927 Y187.625 E0.10507
G1 X166.188 Y188.428 E0.11990
G1 X161.964 Y189.228 E0.13482
G1 X158.659 Y189.786 E0.10507
G1 X154.874 Y190.339 E0.11993
G1 X151.078 Y190.809 E0.11993
G1 X146.222 Y191.302 E0.15304
G1 X146.227 Y195.235 E0.12332
G1 X142.589 Y195.235 E0.11407
G1 X142.594 Y191.572 E0.11486
G1 X137.509 Y191.799 E0.15959
G1 X133.642 Y191.885 E0.12128
G1 X129.774 Y191.885 E0.12129
G1 X125.907 Y191.799 E0.12128
G1 X120.822 Y191.572 E0.15959
G1 X120.827 Y195.235 E0.11486
G1 X117.189 Y195.235 E0.11407
G1 X117.193 Y191.302 E0.12332
G1 X112.337 Y190.809 E0.15304
G1 X108.541 Y190.339 E0.11993
G1 X104.756 Y189.786 E0.11993
G1 X101.452 Y189.228 E0.10507
M73 Q2 S108
G1 X97.227 Y188.428 E0.13482
G1 X93.488 Y187.625 E0.11990
M73 P2 R108
G1 X90.228 Y186.850 E0.10507
G1 X86.066 Y185.772 E0.13482
G1 X82.411 Y184.729 E0.11917
G1 X81.692 Y184.475 E0.02391
G1 X81.029 Y184.159 E0.02304
G1 X80.319 Y183.717 E0.02621
G1 X79.808 Y183.325 E0.02020
G1 X79.269 Y182.817 E0.02321
G1 X78.786 Y182.258 E0.02316
G1 X78.366 Y181.653 E0.02308
G1 X77.968 Y180.923 E0.02608
G1 X77.688 Y180.241 E0.02311
G1 X77.504 Y179.623 E0.02020
G1 X77.346 Y178.803 E0.02621
G1 X77.289 Y178.072 E0.02299
G1 X77.342 Y176.225 E0.05792
G1 X77.273 Y175.123 E0.03463
G1 X77.101 Y174.031 E0.03463
G1 X76.865 Y173.091 E0.03040
G1 X76.459 Y171.921 E0.03884
G1 X75.991 Y170.914 E0.03480
G1 X75.433 Y169.960 E0.03467
G1 X74.791 Y169.064 E0.03457
G1 X74.161 Y168.329 E0.03034
G1 X73.373 Y167.558 E0.03457
G1 X72.514 Y166.861 E0.03467
G1 X71.595 Y166.247 E0.03467
G1 X70.622 Y165.722 E0.03467
G1 X69.604 Y165.289 E0.03467
G1 X68.551 Y164.953 E0.03467
G1 X67.471 Y164.717 E0.03463
G1 X65.639 Y164.487 E0.05791
G1 X64.824 Y164.287 E0.02632
G1 X64.212 Y164.072 E0.02032
G1 X63.539 Y163.755 E0.02333
G1 X62.904 Y163.370 E0.02329
G1 X62.314 Y162.923 E0.02320
G1 X61.708 Y162.347 E0.02622
G1 X61.230 Y161.782 E0.02320
G1 X60.811 Y161.167 E0.02334
G1 X60.502 Y160.597 E0.02031
G1 X60.177 Y159.822 E0.02635
G1 X59.969 Y159.113 E0.02316
G1 X59.831 Y158.358 E0.02407
G1 X59.445 Y155.089 E0.10322
G1 X59.173 Y152.417 E0.08422
G1 X54.532 Y152.346 E0.14552
G1 X54.594 Y148.508 E0.12035
G1 X58.869 Y148.582 E0.13405
G1 X58.665 Y144.083 E0.14122
G1 X58.587 Y140.821 E0.10231
G1 X58.575 Y138.013 E0.08804
G1 X58.639 Y134.296 E0.11656
G1 X58.745 Y131.490 E0.08804
G1 X59.005 Y127.017 E0.14048
G1 X54.532 Y126.950 E0.14025
G1 X54.578 Y124.095 E0.08952
G1 X59.252 Y124.170 E0.14655
G1 X59.809 Y119.338 E0.15250
G1 X60.337 Y115.580 E0.11899
G1 X60.958 Y111.836 E0.11899
G1 X61.671 Y108.109 E0.11899
G1 X62.477 Y104.400 E0.11899
G1 X63.374 Y100.713 E0.11899
G1 X64.362 Y97.049 E0.11899
G1 X65.441 Y93.410 E0.11899
G1 X66.610 Y89.800 E0.11899
G1 X67.868 Y86.219 E0.11899
G1 X69.214 Y82.671 E0.11899
G1 X70.648 Y79.157 E0.11899
G1 X72.168 Y75.680 E0.11899
G1 X73.774 Y72.241 E0.11899
G1 X75.465 Y68.844 E0.11899
G1 X77.239 Y65.489 E0.11899
G1 X79.096 Y62.179 E0.11899
G1 X80.792 Y59.323 E0.10415
G1 X83.054 Y55.702 E0.13387
G1 X85.151 Y52.540 E0.11896
G1 X87.055 Y49.818 E0.10414
G1 X89.579 Y46.375 E0.13388
G1 X91.905 Y43.377 E0.11896
G1 X94.006 Y40.804 E0.10415
G1 X96.779 Y37.558 E0.13385
G1 X99.321 Y34.742 E0.11895
G1 X101.933 Y31.989 E0.11900
G1 X104.642 Y29.272 E0.12029
G1 X105.167 Y28.695 E0.02446
G1 X105.780 Y27.855 E0.03259
G1 X106.230 Y27.031 E0.02947
G1 X106.577 Y26.163 E0.02929
G1 X106.818 Y25.261 E0.02928
G1 X106.951 Y24.336 E0.02929
G1 X106.974 Y23.403 E0.02929
G1 X106.885 Y22.473 E0.02928
G1 X106.687 Y21.560 E0.02928
G1 X106.383 Y20.682 E0.02915
G1 X106.031 Y19.939 E0.02576
G1 X105.541 Y19.149 E0.02917
G1 X104.959 Y18.419 E0.02927
G1 X104.295 Y17.762 E0.02929
G1 X103.552 Y17.186 E0.02947
G1 X102.655 Y16.661 E0.03258
G1 X101.903 Y16.326 E0.02582
G1 X101.013 Y16.047 E0.02925
G1 X100.095 Y15.876 E0.02927
G1 X99.163 Y15.814 E0.02927
G1 X98.230 Y15.864 E0.02930
G1 X97.310 Y16.024 E0.02928
G1 X96.417 Y16.291 E0.02922
G1 X95.661 Y16.616 E0.02583
G1 X94.757 Y17.131 E0.03261
G1 X94.007 Y17.697 E0.02946
G1 X93.334 Y18.344 E0.02928
G1 X92.743 Y19.067 E0.02929
G1 X92.241 Y19.855 E0.02928
G1 X91.838 Y20.693 E0.02914
G1 X91.566 Y21.468 E0.02576
G1 X91.357 Y22.375 E0.02917
G1 X91.257 Y23.303 E0.02928
G1 X91.267 Y24.242 E0.02944
G1 X91.413 Y25.272 E0.03262
G1 X91.619 Y26.070 E0.02584
G1 X91.954 Y26.940 E0.02924
G1 X92.391 Y27.765 E0.02929
G1 X92.921 Y28.531 E0.02920
G1 X93.565 Y29.272 E0.03078
G1 X93.573 Y29.361 E0.00283
G1 X93.522 Y29.435 E0.00280
G1 X93.434 Y29.458 E0.00285
G1 X93.370 Y29.434 E0.00215
G1 X92.796 Y28.805 E0.02670
G1 X92.306 Y28.134 E0.02603
G1 X91.890 Y27.421 E0.02590
G1 X91.509 Y26.560 E0.02951
G1 X91.281 Y25.875 E0.02265
G1 X91.098 Y25.064 E0.02606
G1 X90.998 Y24.241 E0.02601
G1 X90.984 Y23.414 E0.02592
G1 X91.070 Y22.478 E0.02948
G1 X91.207 Y21.770 E0.02262
G1 X91.444 Y20.972 E0.02609
G1 X91.759 Y20.207 E0.02596
G1 X92.207 Y19.384 E0.02937
G1 X92.679 Y18.705 E0.02592
G1 X93.219 Y18.074 E0.02604
G1 X93.821 Y17.503 E0.02601
G1 X94.478 Y16.996 E0.02603
G1 X95.185 Y16.558 E0.02608
G1 X95.833 Y16.240 E0.02264
G1 X96.714 Y15.908 E0.02950
G1 X97.514 Y15.705 E0.02588
G1 X98.330 Y15.584 E0.02587
G1 X99.272 Y15.552 E0.02955
G1 X99.994 Y15.594 E0.02267
G1 X100.813 Y15.725 E0.02603
G1 X101.615 Y15.941 E0.02602
G1 X102.387 Y16.234 E0.02591
G1 X103.224 Y16.664 E0.02950
G1 X103.831 Y17.054 E0.02263
G1 X104.483 Y17.571 E0.02608
G1 X105.078 Y18.150 E0.02602
G1 X105.608 Y18.785 E0.02593
G1 X106.129 Y19.566 E0.02945
G1 X106.466 Y20.204 E0.02261
G1 X106.783 Y20.974 E0.02611
G1 X107.018 Y21.768 E0.02596
G1 X107.186 Y22.688 E0.02935
G1 X107.245 Y23.514 E0.02595
G1 X107.220 Y24.343 E0.02601
G1 X107.110 Y25.167 E0.02608
G1 X106.944 Y25.870 E0.02264
G1 X106.641 Y26.761 E0.02949
G1 X106.290 Y27.509 E0.02591
G1 X105.863 Y28.220 E0.02601
G1 X105.365 Y28.884 E0.02604
G1 X104.777 Y29.522 E0.02720
G1 X102.105 Y32.202 E0.11864
G1 X99.477 Y34.974 E0.11979
G1 X96.918 Y37.812 E0.11981
G1 X94.431 Y40.712 E0.11979
G1 X92.017 Y43.673 E0.11980
G1 X89.678 Y46.694 E0.11979
G1 X87.415 Y49.773 E0.11979
G1 X85.230 Y52.907 E0.11979
G1 X83.124 Y56.095 E0.11980
G1 X81.098 Y59.334 E0.11980
G1 X79.154 Y62.623 E0.11979
G1 X77.292 Y65.960 E0.11979
G1 X75.515 Y69.342 E0.11980
G1 X73.822 Y72.767 E0.11979
G1 X72.416 Y75.802 E0.10488
G1 X70.698 Y79.738 E0.13466
G1 X69.266 Y83.282 E0.11984
G1 X67.924 Y86.859 E0.11980
G1 X66.672 Y90.469 E0.11979
G1 X65.510 Y94.109 E0.11980
G1 X64.440 Y97.777 E0.11979
G1 X63.583 Y101.010 E0.10488
G1 X62.576 Y105.185 E0.13466
G1 X61.784 Y108.924 E0.11984
G1 X61.085 Y112.680 E0.11979
G1 X60.480 Y116.453 E0.11980
G1 X59.970 Y120.239 E0.11980
G1 X59.554 Y124.037 E0.11980
G1 X59.234 Y127.844 E0.11979
G1 X59.009 Y131.659 E0.11980
G1 X58.879 Y135.477 E0.11980
G1 X58.849 Y138.822 E0.10488
G1 X58.906 Y143.116 E0.13466
G1 X59.062 Y146.935 E0.11984
G1 X59.314 Y150.748 E0.11979
G1 X59.661 Y154.552 E0.11980
G1 X60.107 Y158.377 E0.12071
